X:1
T:Speed The Plough
R: reel
M:4/4
L:1/8
O:Trad. (6.10.2015/NS)
K:Dmaj
|: "D" d3A  BAFB |     AFFD  "A"  EFDE | "D"  ~F2AF "G" G2BG | "D" ABde "A" fedc  |
   "D" ~d3A BAFB |     AFFD  "A"  EFDE | "D"  F2AF  "G" G2BG | "A" ABde     fdd2 :|
|: "D" daaf afdf | "G" ~g2fg      edBd |  "D" Aaaf      afdB | "A" ABde     fdd2  |
   "D" daaf afdf | "G" ~g2fg "Em" edBA | "Bm" F2AF  "G" G2BG | "A" ABde     fdd2 :|

